X:79
T: Graf und Nonne (Die Nonne)
N: Q1155P
O: Mitteleuropa, Deutschland
N: Melodievergleich zu Q0155Q., anderes Lied (genetisch verwandt ?).
N: Schlusspause ergaenzt.
R: Liebes - Lied
M: 4/4
L: 1/16
K: G
G2A2 | B4B4d4dcBA | B8A4
A4 | B4B4^c4cdef | d8z4
d4 | e6f2g4d4 | e2f2e3dd4
B4 | c4B4A6G2 | G8z4

@@@ Tune index: 1789
